build/images/last-section/Vectorls-icon-16.svg

<svg width="56" height="81" viewBox="0 0 56 81" fill="none" xmlns="http://www.w3.org/2000/svg">
<path d="M8.20164 59.7971V2.36768M8.20164 2.36768H54.3561V60.5194M8.20164 2.36768C8.20164 2.36768 2.67189 2.18147 2.20403 9.07728C1.73617 15.9731 2.20403 65.7054 2.20403 65.7054M12.9027 71.6136H7.93109C7.17853 71.6136 6.43334 71.4651 5.73814 71.1767C5.04294 70.8882 4.41135 70.4654 3.87947 69.9324C3.34759 69.3994 2.92584 68.7667 2.63836 68.0704C2.35088 67.3742 2.2033 66.628 2.20404 65.8747V65.5304C2.20553 64.0108 2.8096 62.554 3.88346 61.48C4.95733 60.406 6.41316 59.8027 7.93109 59.8027H54.3561V71.6193H20.1969M20.1969 59.7971V79.3672H12.9027V59.7971M20.552 17.9707H41.2786M20.552 23.5122H41.2786M16.2285 11.8762H45.3371V28.8618H16.2285V11.8762Z" stroke="#DB0626" stroke-width="3" stroke-linecap="round" stroke-linejoin="round"/>
</svg>

<svg width="56" height="81" fill="none" xmlns="http://www.w3.org/2000/svg"><path d="M8.202 59.797V2.367m0 0h46.154V60.52M8.202 2.368s-5.53-.187-5.998 6.71c-.468 6.895 0 56.627 0 56.627m10.699 5.909H7.93a5.723 5.723 0 0 1-5.293-3.544 5.739 5.739 0 0 1-.434-2.195v-.345a5.736 5.736 0 0 1 1.68-4.05 5.724 5.724 0 0 1 4.047-1.677h46.425v11.816h-34.16m0-11.822v19.57h-7.293v-19.57m7.649-41.826h20.727m-20.727 5.541h20.727m-25.05-11.636h29.108v16.986H16.228V11.876z" stroke="#DB0626" stroke-width="3" stroke-linecap="round" stroke-linejoin="round"/></svg>
